X: 157
T: Elenska Racenica
O: Bulgaria
M: 7/16
F: http://www.youtube.com/watch?v=GqEWxFQc7qM
Z: Birgitt Karlson
L: 1/16
%%staves [ 1 (2 3) 4]
K: Am clef=G
V:1
%%MIDI program 110
%%MIDI control 7 102
%%MIDI control 10 64
%%MIDI beat 90 80  70 4
|:z4 z3| z4 z3| z4 z3| z4 z3:|
V:2
%%MIDI program 110
%%MIDI control 7 102
%%MIDI control 10 64
%%MIDI beat 90 80  70 4
|:E2 E2 E3| E2 E2 E3| E2 E2 E3| E2 E2 E3:|
V:3
%%MIDI program 110
%%MIDI control 7 102
%%MIDI control 10 64
%%MIDI beat 90 80  70 4
|:EA,A,A, A,2A,|CDCB, A,2A,|EA,A,A, CB,A,|Cz B,z A,3:|
V:4
%%MIDI program 110
%%MIDI control 7 102
%%MIDI control 10 64
%%MIDI beat 90 80  70 4
|:[A,Ace]2z2[A,Ace]2z| [A,Ace]2z2[A,Ace]2z| [A,Ace]2z2[A,Ace]2z| [A,Ace]2z2[A,Ace]2z:|
V:1
C2B,2E3|A,2B,2 G,3|A,4 G,A,D| C4 C2B,|C2B,2 C3|A,2B,2 G,3|_B,4 B,2 C|A,4-A,3|
V:2
z4 z3| z4 z3| z4 z3| z4 z3| z4 z3|A,2B,2 G,3| E4-E3-|E4-E3|
V:3
x7| x7| x7| x7| x7| x7| x7| x7| 
V:4
E2A2 c2z| E2A2 c2z| E2A2 c2z| E2A2 c2z| E2A2 c2z|E2A2 [A,Ace]2 z| [G,G_Bd]2[G,G_Bd]2[G,G_Bd]3| [G,G_Bd]2[G,G_Bd]2[G,G_Bd]3|
V:1
C2 B,2 C3|A,2 B,2 G,3| A,4 G,A,B,|C4 C2B,|\
V:2
A2B2 A3|A2B2 G3| A4 GA B| c4 c2B|\
V:3
E2D2 E3|C2D2 B,3|C4 D3| E4-E3|\
V:4
E2A2 c2z| E2A2 c2z| E2A2 c2z| E2A2 c2z|\
V:1
C2B,2 C3|A,2B,2 G,3| _B,4 B,2A,|A,7|
V:2
c2B2 c3|A2B2 G3|E4-E3|E4-E3|
V:3
E2D2 E3|C2D2 B,3|D4 F3|E4-E3|
V:4
E2A2 c2z|E2A2 [A,Ace]2 z|[G,G_Bd]2[G,GBd]2[G,GBd]3|[A,Ace]2[A,Ace]2[A,Ace]3|
V:1
C4 A,3| B,4 G,3| A4 G,A,B,| C4 C2B,|\
V:2
z2 A,z A3|z2 Gz G3| z2F zF3|E4-E3|\
V:3
x7|x7|x7|x7|\
V:4
z2[A,Ace]z [A,Ace]3|z2[G,GBd]z [G,GBd]3|F,2 [F,FAc]z [G,GBd]3|[Cceg]2[Cceg]z [Cceg]3|\
V:1
C4 A,3|B,4 G,3|_B,4 B,2 A,|A,4-A,3|
V:2
E4-E3|G4-G3|G4-G3|A4-A3|
V:3
x7|x7|x7|x7|
V:4
[A,Ace]3z [A,Ace]2z |[G,GBd]3z[G,GBd]2z |[E,GBd]3z[E,GBd]2z |[A,Ace]2[A,Ace]z [A,Ace]3|
V:1
C4 A,3|B,4 G,3|A,4 G,A,B,|C4 C2B,|\
V:2
A4-A3|G4-G3|F4-F3|E4-E3|\
V:3
x7|x7|x7|x7|\
V:4
z2[A,Ace]z[A,Ac]3 |z2 [G,GBd] z [G,GBd]3 |F,2 [F,FAc] z [G,GBd]3|[Cceg]2[Cceg] z [Cceg]3|\
V:1
C4 A,3|B,4 G,3|_B,4 B,2A,|A,4-A,3|
V:2
E4-E3|G4-G3-|G4-G3|A4-A3|
V:3
x7|x7|x7|x7|
V:4
[A,Ace]3 z [A,Ace]2 z| [G,GBd]3 z [G,GBd]2z|[E,G_Bd]3 z [E,G_Bd]2 z|[A,Ace]2[A,Ace] z [A,Ace]3|
V:1
eAAA A2A|AzBz G3|G2A2 GAB|c4 c2B|\
eAAA A2A|AzBz G3|G2A_B B2A|A4-A3|
V:2
z7|z7|z7|z7|\
z2^Fz F3|z2Gz G3|z2Gz G3|A4 A3|
V:3
x7|x7|x7|x7|\
x7|x7|x7|x7|
V:4
[^F,Ad^f]3z [F,ADf]2z|[G,Bdg]2[G,Bdg]z [G,BDg]3|[E,GBe]2[E,GBe]z [E,GBe]3|[A,Ace]2[A,Ace]z [A,Ace]3|\
[^F,Ad^f]3z [F,ADf]3|[G,Bdg]2[G,Bdg]z [G,BDg]3|[E,GBd]2[E,GBd]z [E,GBd]3|[A,Ace]3z [A,Ace]2z|
V:1
eAAA A2A|AzBz G3|G2A2 GAB|c4 c2B|\
eAAA A2A|AzBz G3|G2A_B B2A|A4-A3|
V:2
^F4-F3|G4-G3|G4-G3|A4-A3|\
z2^FzF3|z2GzG3|z2GzG3|A4A3|
V:3
x7|x7|x7|x7|\
x7|x7|x7|x7|
V:4
[^F,Ad^f]3z [F,Adf]2z|[G,Bdg]2[G,Bdg]z [G,Bdg]3|[E,GBe]2[E,GBe]z [E,GBe]3|[A,Ace]2[A,Ace]z [A,Ace]3|\
[^F,Ad^f]3z [F,Adf]2z|[G,Bdg]2[G,Bdg]z [G,Bdg]3|[E,EGB]2[E,EGB]z [E,EGB]3|[A,Ace]3z [A,Ace]2z|
V:1
cz de ede| c2ce B2e|c2 ce B2e| AEAB c2E|\
V:2
G2z2 B,2z|C2z2 D2z|E2z2 D2z|C2z2 C2z|\
V:3
x7|x7|x7|x7|\
V:4
[A,Ace]2z2 [E,GBe]2z| [A,Ace]2z2 [E,GBe]2z| [A,Ace]2z2 [E,GBe]2z|[A,Ace]2z2[A,Ace]2z|\
V:1
cz de ede|c2ce B2e|c2ce B2e|c2BA A3|
V:2
C2z2 B2z|C2z2 D2z|E2z2 D2z|B2z2C2z|
V:3
x7|x7|x7|x7|
V:4
[A,Ace]2z2 [E,GBe]2z| [A,Ace]2z2 [E,GBe]2z| [A,Ace]2z2 [E,GBe]2z|[A,Ace]2[A,Ace]z2 [A,Ace]z|
V:1
c z de ede|c2ce B2e| c2ce B2e|AEAc c2E|\
V:2
C4 B,3|C4 D3| E4 D3| C4 C3|\
V:3
x7|x7|x7|x7|\
V:4
[A,Ace]2z2 [E,GBe]2z| [A,Ace]2z2 [E,GBe]2z| [A,Ace]2z2 [E,GBe]2z|[A,Ace]2 z2 [A,Ace]2 z|
V:1
c z de ede|c2ce B2e| c2ce B2e|c2BA A3|
V:2
C4 B,3|C4 D3| E4 D3| C4 C3|
V:3
x7|x7|x7|x7|
V:4
[A,Ace]2z2 [E,GBe]2z| [A,Ace]2z2 [E,GBe]2z| [A,Ace]2z2 [E,GBe]2z|[A,Ace]2[A,Ace]z [A,Ace]3|



